src/assets/flags/cl.svg

<?xml version="1.0" encoding="UTF-8"?>
<svg xmlns="http://www.w3.org/2000/svg" xmlns:xlink="http://www.w3.org/1999/xlink" width="25px" height="px" viewBox="0 0 25 19" version="1.1">
<g id="surface1">
<path style=" stroke:none;fill-rule:evenodd;fill:rgb(100%,100%,100%);fill-opacity:1;" d="M 9.375 0 L 28.125 0 L 28.125 9.5 L 9.375 9.5 Z M 9.375 0 "/>
<path style=" stroke:none;fill-rule:evenodd;fill:rgb(0%,22.352941%,65.098041%);fill-opacity:1;" d="M 0 0 L 9.375 0 L 9.375 9.5 L 0 9.5 Z M 0 0 "/>
<path style=" stroke:none;fill-rule:evenodd;fill:rgb(100%,100%,100%);fill-opacity:1;" d="M 6.144531 7.113281 L 4.695312 6.011719 L 3.25 7.125 L 3.785156 5.3125 L 2.34375 4.195312 L 4.128906 4.179688 L 4.679688 2.375 L 5.246094 4.175781 L 7.03125 4.179688 L 5.59375 5.304688 Z M 6.144531 7.113281 "/>
<path style=" stroke:none;fill-rule:evenodd;fill:rgb(83.529413%,16.862746%,11.764706%);fill-opacity:1;" d="M 0 9.5 L 28.125 9.5 L 28.125 19 L 0 19 Z M 0 9.5 "/>
</g>
</svg>

<svg xmlns="http://www.w3.org/2000/svg" width="25" height="px" viewBox="0 0 25 19"><path d="M9.375 0h18.75v9.5H9.375Zm0 0" style="stroke:none;fill-rule:evenodd;fill:#fff;fill-opacity:1"/><path d="M0 0h9.375v9.5H0Zm0 0" style="stroke:none;fill-rule:evenodd;fill:#0039a6;fill-opacity:1"/><path d="m6.145 7.113-1.45-1.101L3.25 7.125l.535-1.812-1.441-1.118 1.785-.015.55-1.805.567 1.8 1.785.005-1.437 1.125Zm0 0" style="stroke:none;fill-rule:evenodd;fill:#fff;fill-opacity:1"/><path d="M0 9.5h28.125V19H0Zm0 0" style="stroke:none;fill-rule:evenodd;fill:#d52b1e;fill-opacity:1"/></svg>
